X: 847
T: Missa O Regem coeli First Section Benedictus
C: Giovanni Perluigi da Palestrina
L: 1/4
M: 4/2
N: Derived from Benedictus_89_a.krn
Q: "Benedictus"
V: 1 clef=treble
V: 2 clef=treble
V: 3 clef=treble-8
K: F
[V:1] z8 | 
[V:2] G4F2G2- | 
[V:3] z8 | 
[V:1] z4d4 | 
[V:2] GFG_EF2G2 | 
[V:3] z8 | 
[V:1] c2d2>c2dB | 
[V:2] _E2D2G4 | 
[V:3] z8 | 
[V:1] c2d2B4 | 
[V:2] A2B2>A2G2- | 
[V:3] z8 | 
[V:1] A2d2e2f2- | 
[V:2] G2F2E2D2 | 
[V:3] d4c2d2- | 
[V:1] fefde2f2- | 
[V:2] A8 | 
[V:3] dcdBc2d2 | 
[V:1] fed4c2 | 
[V:2] D4E4 | 
[V:3] B4A4 | 
[V:1] B2AGA4 | 
[V:2] D4z4 | 
[V:3] z4d4 | 
[V:1] z8 | 
[V:2] A4G2A2- | 
[V:3] c2d2B2c2 | 
[V:1] d4c2d2- | 
[V:2] AGAFG2A2 | 
[V:3] defde2f2 | 
[V:1] dcdBc2d2 | 
[V:2] B4A2B2- | 
[V:3] g4f2B2 | 
[V:1] G4A4 | 
[V:2] BAG4^F2 | 
[V:3] _e4d4 | 
[V:1] G4z2G2 | 
[V:2] G8- | 
[V:3] G8 | 
[V:1] B2>c2def2- | 
[V:2] G4z2D2 | 
[V:3] z2G2B3c | 
[V:1] fed2c2f2 | 
[V:2] F2>G2A4 | 
[V:3] de2<f2ed2 | 
[V:1] e2d2>c2c2 | 
[V:2] A4z4 | 
[V:3] c2f4e2 | 
[V:1] B2A2d4 | 
[V:2] z2D2F3G | 
[V:3] d2>c2B4 | 
[V:1] c4z2A2 | 
[V:2] AGAB2<c2B | 
[V:3] A8 | 
[V:1] c2>d2e2f2- | 
[V:2] A2F2G2FG | 
[V:3] z8 | 
[V:1] fed4cB | 
[V:2] AG2<B2AG2- | 
[V:3] z2B2B2c2 | 
[V:1] A4z2B2 | 
[V:2] G2^F2G4 | 
[V:3] d2>c2BAGF | 
[V:1] B2c2d4 | 
[V:2] z2F2F2G2 | 
[V:3] G2A2B2B2 | 
[V:1] c6B2 | 
[V:2] A3G/ F/E2G2- | 
[V:3] F4z4 | 
[V:1] A2GFG2G2 | 
[V:2] GFF4E2 | 
[V:3] z2B2B2c2 | 
[V:1] F4z2B2 | 
[V:2] F8 | 
[V:3] d3c/ B/A2B2- | 
[V:1] B2c2d3c/ B/ | 
[V:2] z8 | 
[V:3] BGA2Bcde | 
[V:1] A2B2>A2F2 | 
[V:2] z4z2B,2 | 
[V:3] f2g2>f2f2- | 
[V:1] G2G2F4 | 
[V:2] B,2C2DEFD | 
[V:3] f2e2f2B2 | 
[V:1] z2B2B2c2 | 
[V:2] E2F2G4 | 
[V:3] c2d2_e3_e | 
[V:1] d3c/ B/A2B2 | 
[V:2] z2F2F2G2 | 
[V:3] d4z4 | 
[V:1] FGABcAB2 | 
[V:2] A6GF | 
[V:3] z2F2F2G2 | 
[V:1] ABcde2f2- | 
[V:2] E2A2>G2FE | 
[V:3] A2>B2c2d2- | 
[V:1] fed4^c2 | 
[V:2] F2G2E2E2 | 
[V:3] d2G2A4 | 
[V:1] d8- | 
[V:2] D8- | 
[V:3] d8- | 
[V:1] d8
[V:2] D8
[V:3] d8

